X:238
T:Spanish Waltz
O:No 238 William Clarke of Feltwell
M:3/8
L:1/8
K:G
ddc|e!>!d2|dB2|B(G/A/B/c/)|ddc|e!>!d2|d!>!B2|c!>!A2::g{a}g/f/g/a/|bc'd'|gab|d'2c'|f{g}f/e/f/g/|abc'|def|a2g|g{a}g/f/g/a/|bc'd'|gab|d'2c'|f{g}f/e/f/g/|abc'|def|ga/g/f/e/|]

